Adwaita++-Light/panel/22/odrive-tray-sync.svg

<svg height="22" width="22" xmlns="http://www.w3.org/2000/svg">
  <path d="m8 3 5.302734 9.642578a5 5 0 0 1 3.697266-1.642578 5 5 0 0 1 2.072266.455078l-5.072266-8.455078zm-.5 1-5.5 10 3 5 5.5-9.5zm9.5 8c-2.2091 0-4 1.7909-4 4s1.7909 4 4 4 4-1.7909 4-4-1.7909-4-4-4zm0 1a3 3 0 0 1 3 3h-1a2 2 0 0 0 -2-2zm-4.583984 1.005859-3.416016.003907-3 4.990234h7.007812a5 5 0 0 1 -1.007812-3 5 5 0 0 1 .416016-1.994141zm1.583984 1.994141h1a2 2 0 0 0 2 2v1a3 3 0 0 1 -3-3z" fill="#444"/>
</svg>

<svg xmlns="http://www.w3.org/2000/svg" width="22" height="22" version="1.1">
 <defs>
  <style id="current-color-scheme" type="text/css">
   .ColorScheme-Text { color:#444444; } .ColorScheme-Highlight { color:#4285f4; }
  </style>
 </defs>
 <path style="fill:currentColor" class="ColorScheme-Text" d="M 8 3 L 13.302734 12.642578 A 5 5 0 0 1 17 11 A 5 5 0 0 1 19.072266 11.455078 L 14 3 L 8 3 z M 7.5 4 L 2 14 L 5 19 L 10.5 9.5 L 7.5 4 z M 17 12 C 14.7909 12 13 13.7909 13 16 C 13 18.2091 14.7909 20 17 20 C 19.2091 20 21 18.2091 21 16 C 21 13.7909 19.2091 12 17 12 z M 17 13 A 3 3 0 0 1 20 16 L 19 16 A 2 2 0 0 0 17 14 L 17 13 z M 12.416016 14.005859 L 9 14.009766 L 6 19 L 13.007812 19 A 5 5 0 0 1 12 16 A 5 5 0 0 1 12.416016 14.005859 z M 14 16 L 15 16 A 2 2 0 0 0 17 18 L 17 19 A 3 3 0 0 1 14 16 z"/>
</svg>
